X: 1
T: Sam's Sugar Bush jig
C: by Gerry Smith
R: jig
S: Fiddle Hell Online 2021-11-7 April Verch workshop
Z: 2021 John Chambers <jc:trillian.mit.edu>
M: 6/8
L: 1/8
K: C
AB | "C"cGE CEG | "F"DFA "Dm"d2c | "G7"(3B/c/B/AB GAB |1,3 "C"cea g :|2 "C"c3- c :|
|: ef | "C"g2c cde | "F"def "Dm"aga | "G7"bag fed |1,3 "C"cea g :|2,4 "C"c3- c :|
